assets/Newspaper/Flat/newspaper_flat.svg

<svg width="32" height="32" viewBox="0 0 32 32" fill="none" xmlns="http://www.w3.org/2000/svg">
<path d="M4 7C4 5.89543 4.89543 5 6 5H29C30.1046 5 31 5.89543 31 7V29C31 30.1046 30.1046 31 29 31H4C2.34315 31 1 29.6569 1 28V10C1 8.34314 2.34315 7 4 7Z" fill="#B4ACBC"/>
<path d="M28 10C28 8.89543 27.1046 8 26 8H4C2.89543 8 2 8.89543 2 10V28C2 29.1046 2.89543 30 4 30H29.5C28.6716 30 28 29.3284 28 28.5V10Z" fill="#F3EEF8"/>
<path d="M4 11C4 10.4477 4.44772 10 5 10H25C25.5523 10 26 10.4477 26 11C26 11.5523 25.5523 12 25 12H5C4.44772 12 4 11.5523 4 11ZM4 14.5C4 14.2239 4.22386 14 4.5 14H25.5C25.7761 14 26 14.2239 26 14.5C26 14.7761 25.7761 15 25.5 15H4.5C4.22386 15 4 14.7761 4 14.5ZM19.5 17C19.2239 17 19 17.2239 19 17.5C19 17.7761 19.2239 18 19.5 18H25.5C25.7761 18 26 17.7761 26 17.5C26 17.2239 25.7761 17 25.5 17H19.5ZM19 20.5C19 20.2239 19.2239 20 19.5 20H25.5C25.7761 20 26 20.2239 26 20.5C26 20.7761 25.7761 21 25.5 21H19.5C19.2239 21 19 20.7761 19 20.5ZM19.5 23C19.2239 23 19 23.2239 19 23.5C19 23.7761 19.2239 24 19.5 24H25.5C25.7761 24 26 23.7761 26 23.5C26 23.2239 25.7761 23 25.5 23H19.5ZM19 26.5C19 26.2239 19.2239 26 19.5 26H25.5C25.7761 26 26 26.2239 26 26.5C26 26.7761 25.7761 27 25.5 27H19.5C19.2239 27 19 26.7761 19 26.5ZM6 17C4.89543 17 4 17.8954 4 19V25C4 26.1046 4.89543 27 6 27H15C16.1046 27 17 26.1046 17 25V19C17 17.8954 16.1046 17 15 17H6Z" fill="#998EA4"/>
</svg>

<svg xmlns="http://www.w3.org/2000/svg" width="32" height="32" fill="none"><path fill="#B4ACBC" d="M4 7a2 2 0 0 1 2-2h23a2 2 0 0 1 2 2v22a2 2 0 0 1-2 2H4a3 3 0 0 1-3-3V10a3 3 0 0 1 3-3Z"/><path fill="#F3EEF8" d="M28 10a2 2 0 0 0-2-2H4a2 2 0 0 0-2 2v18a2 2 0 0 0 2 2h25.5a1.5 1.5 0 0 1-1.5-1.5V10Z"/><path fill="#998EA4" d="M4 11a1 1 0 0 1 1-1h20a1 1 0 1 1 0 2H5a1 1 0 0 1-1-1Zm0 3.5a.5.5 0 0 1 .5-.5h21a.5.5 0 0 1 0 1h-21a.5.5 0 0 1-.5-.5ZM19.5 17a.5.5 0 0 0 0 1h6a.5.5 0 0 0 0-1h-6Zm-.5 3.5a.5.5 0 0 1 .5-.5h6a.5.5 0 0 1 0 1h-6a.5.5 0 0 1-.5-.5Zm.5 2.5a.5.5 0 0 0 0 1h6a.5.5 0 0 0 0-1h-6Zm-.5 3.5a.5.5 0 0 1 .5-.5h6a.5.5 0 0 1 0 1h-6a.5.5 0 0 1-.5-.5ZM6 17a2 2 0 0 0-2 2v6a2 2 0 0 0 2 2h9a2 2 0 0 0 2-2v-6a2 2 0 0 0-2-2H6Z"/></svg>
